X: 20382
Q: "Andante"
M: 2/4
L: 1/16
K: D
(d2e>f) (ge) za | d2(e>d) (dc) zA |\
a2(f<d') (c'b) zg | (g/f/)(b/a/) (a>c) d2(d>c) |\
(cBA)g (g3f) | f2e^g a2(bc') |
f2d'>c' (c'b)(a^g) | a2e>f g2a2 |\
d2fa bd' ze | (g/f/b/a/) (a>c) d2 |]


